icons/axis.svg

<?xml version="1.0" encoding="UTF-8" standalone="no"?>
<svg
   xmlns:dc="http://purl.org/dc/elements/1.1/"
   xmlns:cc="http://creativecommons.org/ns#"
   xmlns:rdf="http://www.w3.org/1999/02/22-rdf-syntax-ns#"
   xmlns:svg="http://www.w3.org/2000/svg"
   xmlns="http://www.w3.org/2000/svg"
   xmlns:sodipodi="http://sodipodi.sourceforge.net/DTD/sodipodi-0.dtd"
   xmlns:inkscape="http://www.inkscape.org/namespaces/inkscape"
   width="24"
   height="24"
   viewBox="0 0 24 24"
   fill="none"
   stroke="currentColor"
   stroke-width="2"
   stroke-linecap="round"
   stroke-linejoin="round"
   class="feather feather-check-circle"
   version="1.1"
   id="svg912"
   sodipodi:docname="axis.svg"
   inkscape:version="0.92.3 (2405546, 2018-03-11)">
  <metadata
     id="metadata918">
    <rdf:RDF>
      <cc:Work
         rdf:about="">
        <dc:format>image/svg+xml</dc:format>
        <dc:type
           rdf:resource="http://purl.org/dc/dcmitype/StillImage" />
        <dc:title></dc:title>
      </cc:Work>
    </rdf:RDF>
  </metadata>
  <defs
     id="defs916">
    <inkscape:perspective
       sodipodi:type="inkscape:persp3d"
       inkscape:vp_x="1.4396014 : 13.14622 : 1"
       inkscape:vp_y="0 : 1000 : 0"
       inkscape:vp_z="23.576471 : 13.863529 : 1"
       inkscape:persp3d-origin="12 : 8 : 1"
       id="perspective4901" />
    <clipPath
       clipPathUnits="userSpaceOnUse"
       id="clipPath4862">
      <g
         id="use4864"
         inkscape:label="Clip">
        <text
           xml:space="preserve"
           style="font-style:normal;font-variant:normal;font-weight:normal;font-stretch:normal;font-size:21.62864113px;line-height:1.25;font-family:OpenSymbol;-inkscape-font-specification:OpenSymbol;letter-spacing:0px;word-spacing:0px;fill:#000000;fill-opacity:1;stroke:none;stroke-width:1.0814321"
           x="0.36598843"
           y="15.595892"
           id="text4887"><tspan
             sodipodi:role="line"
             id="tspan4885"
             x="0.36598843"
             y="15.595892"
             style="stroke-width:1.0814321">θ</tspan></text>
        <text
           xml:space="preserve"
           style="font-style:normal;font-variant:normal;font-weight:normal;font-stretch:normal;font-size:18.26297569px;line-height:1.25;font-family:OpenSymbol;-inkscape-font-specification:OpenSymbol;letter-spacing:0px;word-spacing:0px;fill:#000000;fill-opacity:1;stroke:none;stroke-width:0.91314882"
           x="12.974728"
           y="-29.996325"
           id="text4893"><tspan
             sodipodi:role="line"
             id="tspan4889"
             x="12.974728"
             y="-13.785727"
             style="stroke-width:0.91314882" /><tspan
             sodipodi:role="line"
             id="tspan4891"
             x="12.974728"
             y="9.0429926"
             style="stroke-width:0.91314882">φ</tspan></text>
        <text
           xml:space="preserve"
           style="font-style:normal;font-variant:normal;font-weight:normal;font-stretch:normal;font-size:18.699646px;line-height:1.25;font-family:OpenSymbol;-inkscape-font-specification:OpenSymbol;letter-spacing:0px;word-spacing:0px;fill:#000000;fill-opacity:1;stroke:none;stroke-width:0.9349823"
           x="6.1380992"
           y="19.032444"
           id="text4897"><tspan
             sodipodi:role="line"
             id="tspan4895"
             x="6.1380992"
             y="19.032444"
             style="stroke-width:0.9349823">ψ</tspan></text>
      </g>
    </clipPath>
  </defs>
  <sodipodi:namedview
     pagecolor="#ffffff"
     bordercolor="#666666"
     borderopacity="1"
     objecttolerance="10"
     gridtolerance="10"
     guidetolerance="10"
     inkscape:pageopacity="0"
     inkscape:pageshadow="2"
     inkscape:window-width="1920"
     inkscape:window-height="1043"
     id="namedview914"
     showgrid="false"
     inkscape:zoom="32"
     inkscape:cx="18.296841"
     inkscape:cy="12.076987"
     inkscape:window-x="1920"
     inkscape:window-y="0"
     inkscape:window-maximized="1"
     inkscape:current-layer="svg912" />
  <g
     aria-label="A"
     style="font-style:normal;font-variant:normal;font-weight:normal;font-stretch:normal;font-size:28.04483032px;line-height:1.25;font-family:OpenSymbol;-inkscape-font-specification:OpenSymbol;letter-spacing:0px;word-spacing:0px;fill:#000000;fill-opacity:1;stroke:none;stroke-width:1.40224147"
     id="text4589" />
  <g
     id="g4733"
     transform="translate(0.14315221,-0.21524572)">
    <g
       style="stroke-linecap:round"
       transform="matrix(1.2318397,0,0,1.2318397,-2.8027524,-0.6609697)"
       id="g970">
      <path
         style="fill:none;stroke:#000000;stroke-width:1px;stroke-linecap:round;stroke-linejoin:miter;stroke-opacity:1"
         d="M 7.8627749,1.5168845 V 12.853174 H 7.8311979 19.767458"
         id="path961"
         inkscape:connector-curvature="0" />
      <path
         style="fill:none;stroke:#000000;stroke-width:1px;stroke-linecap:round;stroke-linejoin:miter;stroke-opacity:1"
         d="M 4.168218,19.389698 Z"
         id="path963"
         inkscape:connector-curvature="0" />
      <path
         style="fill:none;stroke:#000000;stroke-width:1px;stroke-linecap:round;stroke-linejoin:miter;stroke-opacity:1"
         d="M 4.168218,19.389698 7.8627749,12.853174"
         id="path965"
         inkscape:connector-curvature="0" />
    </g>
    <path
       sodipodi:nodetypes="cc"
       inkscape:connector-curvature="0"
       id="path972"
       d="M 6.8162793,1.1492733 4.123312,5.4700819"
       style="fill:none;stroke:#000000;stroke-width:1.05528224px;stroke-linecap:round;stroke-linejoin:miter;stroke-opacity:1" />
    <path
       sodipodi:nodetypes="cc"
       inkscape:connector-curvature="0"
       id="path972-3"
       d="M 6.9300513,1.131009 9.623019,5.4518176"
       style="fill:none;stroke:#000000;stroke-width:1.05528224px;stroke-linecap:round;stroke-linejoin:miter;stroke-opacity:1" />
    <g
       transform="matrix(0,1.0552823,-1.0552823,0,38.715998,-6.4221015)"
       id="g4712">
      <path
         style="fill:none;stroke:#000000;stroke-width:1px;stroke-linecap:round;stroke-linejoin:miter;stroke-opacity:1"
         d="m 20.408255,16.214336 -2.551893,4.094458"
         id="path972-5"
         inkscape:connector-curvature="0"
         sodipodi:nodetypes="cc" />
      <path
         style="fill:none;stroke:#000000;stroke-width:1px;stroke-linecap:round;stroke-linejoin:miter;stroke-opacity:1"
         d="m 20.516067,16.197029 2.551893,4.094458"
         id="path972-3-4"
         inkscape:connector-curvature="0"
         sodipodi:nodetypes="cc" />
    </g>
    <path
       sodipodi:nodetypes="cc"
       inkscape:connector-curvature="0"
       id="path972-4"
       d="M 2.3487974,23.314562 6.8413793,20.919117"
       style="fill:none;stroke:#000000;stroke-width:1.05528224px;stroke-linecap:round;stroke-linejoin:miter;stroke-opacity:1" />
    <path
       sodipodi:nodetypes="cc"
       inkscape:connector-curvature="0"
       id="path972-3-9"
       d="M 2.2411354,23.273495 2.069362,18.185081"
       style="fill:none;stroke:#000000;stroke-width:1.05528224px;stroke-linecap:round;stroke-linejoin:miter;stroke-opacity:1" />
  </g>
  <g
     aria-label="x"
     style="font-style:normal;font-variant:normal;font-weight:normal;font-stretch:normal;font-size:5.33333349px;line-height:1.25;font-family:Cantarell;-inkscape-font-specification:Cantarell;letter-spacing:0px;word-spacing:0px;fill:#000000;fill-opacity:1;stroke:none"
     id="text4737">
    <path
       d="m 8.3214106,20.589644 h -0.512 l 0.9280001,1.296 -0.9013334,1.274667 h 0.4853333 l 0.6613334,-0.944 0.6666667,0.944 H 10.177411 L 9.2600773,21.874977 10.193411,20.589644 H 9.6974107 l -0.688,0.96 z"
       style=""
       id="path4765" />
  </g>
  <g
     aria-label="y"
     style="font-style:normal;font-variant:normal;font-weight:normal;font-stretch:normal;font-size:5.33333349px;line-height:1.25;font-family:Cantarell;-inkscape-font-specification:Cantarell;letter-spacing:0px;word-spacing:0px;fill:#000000;fill-opacity:1;stroke:none"
     id="text4737-8">
    <path
       d="M 23.069415,9.9959169 22.280082,12.12925 21.490749,9.9959169 h -0.464 l 1.034666,2.7040001 -0.490666,1.189333 h 0.448 l 1.472,-3.8933331 z"
       style=""
       id="path4768" />
  </g>
  <g
     aria-label="z"
     style="font-style:normal;font-variant:normal;font-weight:normal;font-stretch:normal;font-size:5.33333349px;line-height:1.25;font-family:Cantarell;-inkscape-font-specification:Cantarell;letter-spacing:0px;word-spacing:0px;fill:#000000;fill-opacity:1;stroke:none"
     id="text4737-81">
    <path
       d="M 9.7042506,0.49591689 V 0.8479169 H 11.106917 L 9.7042506,2.8425836 v 0.224 h 2.0266664 v -0.352 h -1.472 l 1.408,-1.9946667 V 0.49591689 Z"
       style=""
       id="path4771" />
  </g>
</svg>

<svg class="feather feather-check-circle" width="24" height="24" stroke-linecap="round" stroke-linejoin="round" stroke-width="2" version="1.1" viewBox="0 0 24 24" xmlns="http://www.w3.org/2000/svg">
 <g transform="translate(.14315 -.21525)" fill="none" stroke="#000" stroke-linecap="round" stroke-linejoin="miter">
  <g transform="matrix(1.2318 0 0 1.2318 -2.8028 -.66097)" stroke-width="1px">
   <path d="m7.8628 1.5169v11.336h-0.031577 11.936"/>
   <path d="m4.1682 19.39z"/>
   <path d="m4.1682 19.39 3.6946-6.5365"/>
  </g>
  <path d="m6.8163 1.1493-2.693 4.3208" stroke-width="1.0553px"/>
  <path d="m6.9301 1.131 2.693 4.3208" stroke-width="1.0553px"/>
  <g transform="matrix(0 1.0553 -1.0553 0 38.716 -6.4221)" stroke-width="1px">
   <path d="m20.408 16.214-2.5519 4.0945"/>
   <path d="m20.516 16.197 2.5519 4.0945"/>
  </g>
  <path d="m2.3488 23.315 4.4926-2.3954" stroke-width="1.0553px"/>
  <path d="m2.2411 23.273-0.17177-5.0884" stroke-width="1.0553px"/>
 </g>
 <g>
  <g aria-label="x">
   <path d="m8.3214 20.59h-0.512l0.928 1.296-0.90133 1.2747h0.48533l0.66133-0.944 0.66667 0.944h0.528l-0.91733-1.2853 0.93333-1.2853h-0.496l-0.688 0.96z" style=""/>
  </g>
  <g aria-label="y">
   <path d="m23.069 9.9959-0.78933 2.1333-0.78933-2.1333h-0.464l1.0347 2.704-0.49067 1.1893h0.448l1.472-3.8933z" style=""/>
  </g>
  <g aria-label="z">
   <path d="m9.7043 0.49592v0.352h1.4027l-1.4027 1.9947v0.224h2.0267v-0.352h-1.472l1.408-1.9947v-0.224z" style=""/>
  </g>
 </g>
</svg>
